flaticon/science/cells-4.svg

<svg xmlns="http://www.w3.org/2000/svg" width="32" height="32" viewBox="0 0 24 24">
    <path d="M6.398438 4.398438C6.640625 4.398438 6.800781 4.238281 6.800781 4 6.800781 3.761719 6.960938 3.601562 7.199219 3.601562 7.441406 3.601562 7.601562 3.441406 7.601562 3.199219 7.601562 2.960938 7.441406 2.800781 7.199219 2.800781 6.519531 2.800781 6 3.320312 6 4 6 4.238281 6.160156 4.398438 6.398438 4.398438zM16.398438 4.398438C16.640625 4.398438 16.800781 4.238281 16.800781 4 16.800781 3.761719 16.960938 3.601562 17.199219 3.601562 17.441406 3.601562 17.601562 3.441406 17.601562 3.199219 17.601562 2.960938 17.441406 2.800781 17.199219 2.800781 16.519531 2.800781 16 3.320312 16 4 16 4.238281 16.160156 4.398438 16.398438 4.398438zM7.199219 18.800781C6.519531 18.800781 6 19.320312 6 20 6 20.238281 6.160156 20.398438 6.398438 20.398438 6.640625 20.398438 6.800781 20.238281 6.800781 20 6.800781 19.761719 6.960938 19.601562 7.199219 19.601562 7.441406 19.601562 7.601562 19.441406 7.601562 19.199219 7.601562 18.960938 7.441406 18.800781 7.199219 18.800781zM17.199219 18.800781C16.519531 18.800781 16 19.320312 16 20 16 20.238281 16.160156 20.398438 16.398438 20.398438 16.640625 20.398438 16.800781 20.238281 16.800781 20 16.800781 19.761719 16.960938 19.601562 17.199219 19.601562 17.441406 19.601562 17.601562 19.441406 17.601562 19.199219 17.601562 18.960938 17.441406 18.800781 17.199219 18.800781zM2.800781 10.800781C2.121094 10.800781 1.601562 11.320312 1.601562 12 1.601562 12.238281 1.761719 12.398438 2 12.398438 2.238281 12.398438 2.398438 12.238281 2.398438 12 2.398438 11.761719 2.558594 11.601562 2.800781 11.601562 3.039062 11.601562 3.199219 11.441406 3.199219 11.199219 3.199219 10.960938 3.039062 10.800781 2.800781 10.800781zM12 7.601562C9.558594 7.601562 7.601562 9.558594 7.601562 12 7.601562 14.441406 9.558594 16.398438 12 16.398438 14.441406 16.398438 16.398438 14.441406 16.398438 12 16.398438 9.558594 14.441406 7.601562 12 7.601562zM12 15.601562C10 15.601562 8.398438 14 8.398438 12 8.398438 10 10 8.398438 12 8.398438 14 8.398438 15.601562 10 15.601562 12 15.601562 14 14 15.601562 12 15.601562zM12 15.601562"/>
    <path d="M 12 9.199219 C 10.441406 9.199219 9.199219 10.441406 9.199219 12 C 9.199219 12.238281 9.359375 12.398438 9.601562 12.398438 C 9.839844 12.398438 10 12.238281 10 12 C 10 10.878906 10.878906 10 12 10 C 12.238281 10 12.398438 9.839844 12.398438 9.601562 C 12.398438 9.359375 12.238281 9.199219 12 9.199219 Z M 12 9.199219"/>
    <path d="M 21.199219 9.199219 C 20.925781 9.199219 20.664062 9.238281 20.414062 9.308594 L 18.75 6.339844 C 19.507812 5.839844 20 4.984375 20 4 C 20 2.441406 18.761719 1.199219 17.199219 1.199219 C 15.777344 1.199219 14.621094 2.234375 14.429688 3.601562 L 9.972656 3.601562 C 9.78125 2.234375 8.625 1.199219 7.199219 1.199219 C 5.640625 1.199219 4.398438 2.441406 4.398438 4 C 4.398438 4.96875 4.878906 5.8125 5.613281 6.3125 L 3.3125 9.246094 C 3.144531 9.214844 2.976562 9.199219 2.800781 9.199219 C 1.238281 9.199219 0 10.441406 0 12 C 0 13.558594 1.238281 14.800781 2.800781 14.800781 C 2.960938 14.800781 3.121094 14.785156 3.277344 14.757812 L 5.585938 17.703125 C 4.867188 18.207031 4.398438 19.042969 4.398438 20 C 4.398438 21.558594 5.640625 22.800781 7.199219 22.800781 C 8.625 22.800781 9.78125 21.765625 9.972656 20.398438 L 14.429688 20.398438 C 14.621094 21.765625 15.777344 22.800781 17.199219 22.800781 C 18.761719 22.800781 20 21.558594 20 20 C 20 19 19.492188 18.136719 18.71875 17.640625 L 20.347656 14.671875 C 20.617188 14.753906 20.902344 14.800781 21.199219 14.800781 C 22.761719 14.800781 24 13.558594 24 12 C 24 10.441406 22.761719 9.199219 21.199219 9.199219 Z M 17.199219 2 C 18.320312 2 19.199219 2.878906 19.199219 4 C 19.199219 5.113281 18.332031 5.988281 17.21875 6 C 16.109375 5.988281 15.238281 5.113281 15.238281 4 C 15.238281 3.9375 15.226562 3.878906 15.207031 3.828125 C 15.292969 2.792969 16.136719 2 17.199219 2 Z M 5.199219 4 C 5.199219 2.878906 6.078125 2 7.199219 2 C 8.320312 2 9.199219 2.878906 9.199219 4 C 9.199219 5.113281 8.332031 5.988281 7.222656 6 C 6.949219 5.996094 6.675781 5.917969 6.398438 5.800781 C 6.347656 5.773438 6.292969 5.761719 6.238281 5.761719 C 5.613281 5.425781 5.199219 4.769531 5.199219 4 Z M 0.800781 12 C 0.800781 10.878906 1.679688 10 2.800781 10 C 2.984375 10 3.164062 10.023438 3.332031 10.070312 C 3.34375 10.074219 3.351562 10.078125 3.359375 10.078125 C 4.148438 10.304688 4.722656 11.023438 4.792969 11.835938 C 4.792969 11.835938 4.792969 11.835938 4.792969 11.839844 C 4.796875 11.863281 4.796875 11.886719 4.796875 11.910156 C 4.800781 11.941406 4.800781 11.96875 4.800781 12 C 4.800781 12.03125 4.800781 12.058594 4.796875 12.089844 C 4.796875 12.113281 4.796875 12.136719 4.792969 12.164062 C 4.722656 12.976562 4.144531 13.695312 3.320312 13.921875 C 3.300781 13.925781 3.277344 13.9375 3.257812 13.949219 C 3.109375 13.980469 2.957031 14 2.800781 14 C 1.679688 14 0.800781 13.121094 0.800781 12 Z M 7.199219 22 C 6.078125 22 5.199219 21.121094 5.199219 20 C 5.199219 19.226562 5.617188 18.570312 6.246094 18.234375 C 6.285156 18.230469 6.324219 18.21875 6.359375 18.199219 C 6.640625 18.078125 6.921875 18 7.199219 18 C 8.320312 18 9.199219 18.878906 9.199219 20 C 9.199219 21.121094 8.320312 22 7.199219 22 Z M 19.199219 20 C 19.199219 21.121094 18.320312 22 17.199219 22 C 16.078125 22 15.199219 21.121094 15.199219 20 C 15.199219 18.878906 16.078125 18 17.199219 18 C 18.320312 18 19.199219 18.878906 19.199219 20 Z M 17.96875 17.304688 C 17.722656 17.238281 17.46875 17.199219 17.199219 17.199219 C 17.195312 17.199219 17.1875 17.199219 17.183594 17.199219 C 17.175781 17.199219 17.167969 17.199219 17.160156 17.199219 C 15.761719 17.199219 14.601562 18.238281 14.398438 19.601562 L 9.972656 19.601562 C 9.792969 18.320312 8.765625 17.332031 7.460938 17.210938 C 7.453125 17.210938 7.445312 17.210938 7.433594 17.210938 C 7.402344 17.207031 7.367188 17.203125 7.335938 17.203125 C 7.289062 17.203125 7.246094 17.199219 7.199219 17.199219 C 6.878906 17.199219 6.601562 17.238281 6.320312 17.320312 L 4.089844 14.492188 C 4.929688 14.058594 5.519531 13.214844 5.589844 12.210938 C 5.59375 12.203125 5.59375 12.191406 5.59375 12.179688 C 5.59375 12.160156 5.597656 12.140625 5.597656 12.121094 C 5.597656 12.082031 5.601562 12.039062 5.601562 12 C 5.601562 11.960938 5.597656 11.917969 5.597656 11.878906 C 5.597656 11.859375 5.59375 11.839844 5.59375 11.820312 C 5.59375 11.808594 5.59375 11.796875 5.589844 11.789062 C 5.519531 10.785156 4.929688 9.941406 4.089844 9.507812 L 6.320312 6.679688 C 6.550781 6.746094 6.804688 6.785156 7.042969 6.796875 C 7.050781 6.796875 7.058594 6.796875 7.0625 6.796875 C 7.109375 6.796875 7.15625 6.800781 7.199219 6.800781 C 7.246094 6.800781 7.289062 6.796875 7.335938 6.796875 C 7.367188 6.796875 7.402344 6.792969 7.433594 6.789062 C 7.445312 6.789062 7.453125 6.789062 7.460938 6.789062 C 8.765625 6.667969 9.792969 5.679688 9.972656 4.398438 L 14.429688 4.398438 C 14.605469 5.679688 15.636719 6.667969 16.9375 6.789062 C 16.945312 6.789062 16.957031 6.789062 16.964844 6.789062 C 17 6.792969 17.03125 6.796875 17.066406 6.796875 C 17.109375 6.796875 17.15625 6.800781 17.199219 6.800781 C 17.242188 6.800781 17.285156 6.796875 17.328125 6.796875 C 17.34375 6.796875 17.355469 6.796875 17.367188 6.792969 C 17.398438 6.792969 17.433594 6.789062 17.464844 6.789062 C 17.476562 6.785156 17.488281 6.785156 17.5 6.785156 C 17.539062 6.78125 17.578125 6.773438 17.617188 6.769531 C 17.644531 6.765625 17.671875 6.761719 17.699219 6.757812 C 17.703125 6.753906 17.710938 6.753906 17.71875 6.753906 C 17.816406 6.734375 17.910156 6.710938 18.003906 6.683594 L 19.636719 9.671875 C 19.429688 9.808594 19.242188 9.972656 19.082031 10.160156 C 19.074219 10.167969 19.066406 10.175781 19.058594 10.183594 C 19.046875 10.199219 19.035156 10.214844 19.023438 10.230469 C 19 10.257812 18.976562 10.285156 18.957031 10.3125 C 18.953125 10.320312 18.949219 10.324219 18.945312 10.332031 C 18.921875 10.359375 18.902344 10.390625 18.878906 10.421875 C 18.878906 10.425781 18.875 10.429688 18.871094 10.433594 C 18.851562 10.464844 18.828125 10.5 18.808594 10.53125 C 18.804688 10.539062 18.800781 10.546875 18.792969 10.554688 C 18.777344 10.585938 18.757812 10.617188 18.742188 10.648438 C 18.738281 10.65625 18.734375 10.664062 18.726562 10.675781 C 18.714844 10.699219 18.699219 10.726562 18.6875 10.753906 C 18.679688 10.769531 18.671875 10.785156 18.664062 10.800781 C 18.652344 10.824219 18.644531 10.84375 18.636719 10.863281 C 18.625 10.894531 18.613281 10.921875 18.601562 10.949219 C 18.59375 10.960938 18.589844 10.972656 18.585938 10.984375 C 18.558594 11.058594 18.535156 11.132812 18.511719 11.207031 C 18.507812 11.214844 18.507812 11.222656 18.503906 11.230469 C 18.492188 11.273438 18.480469 11.316406 18.472656 11.363281 C 18.46875 11.371094 18.46875 11.382812 18.464844 11.394531 C 18.460938 11.417969 18.457031 11.441406 18.449219 11.464844 C 18.445312 11.484375 18.441406 11.507812 18.441406 11.527344 C 18.433594 11.554688 18.429688 11.582031 18.425781 11.605469 C 18.425781 11.632812 18.421875 11.65625 18.417969 11.683594 C 18.417969 11.695312 18.414062 11.710938 18.414062 11.726562 C 18.410156 11.761719 18.40625 11.800781 18.40625 11.839844 C 18.402344 11.851562 18.402344 11.863281 18.402344 11.871094 C 18.402344 11.914062 18.398438 11.957031 18.398438 12 C 18.398438 12.042969 18.402344 12.085938 18.402344 12.128906 C 18.402344 12.136719 18.402344 12.148438 18.40625 12.160156 C 18.40625 12.199219 18.410156 12.238281 18.414062 12.273438 C 18.414062 12.289062 18.417969 12.304688 18.417969 12.320312 C 18.421875 12.34375 18.425781 12.367188 18.425781 12.394531 C 18.429688 12.417969 18.433594 12.445312 18.441406 12.472656 C 18.441406 12.492188 18.445312 12.515625 18.449219 12.535156 C 18.457031 12.558594 18.460938 12.582031 18.464844 12.605469 C 18.46875 12.617188 18.46875 12.628906 18.472656 12.636719 C 18.480469 12.683594 18.492188 12.726562 18.503906 12.769531 C 18.507812 12.777344 18.507812 12.785156 18.511719 12.792969 C 18.535156 12.867188 18.558594 12.941406 18.585938 13.015625 C 18.589844 13.027344 18.59375 13.039062 18.601562 13.050781 C 18.613281 13.078125 18.625 13.105469 18.636719 13.136719 C 18.644531 13.15625 18.652344 13.175781 18.664062 13.199219 C 18.671875 13.214844 18.679688 13.230469 18.6875 13.246094 C 18.699219 13.273438 18.714844 13.296875 18.726562 13.324219 C 18.734375 13.335938 18.738281 13.34375 18.742188 13.351562 C 18.757812 13.382812 18.777344 13.414062 18.792969 13.445312 C 18.800781 13.453125 18.804688 13.460938 18.808594 13.46875 C 18.828125 13.5 18.851562 13.535156 18.871094 13.566406 C 18.875 13.570312 18.878906 13.574219 18.878906 13.578125 C 18.902344 13.609375 18.921875 13.640625 18.945312 13.667969 C 18.949219 13.675781 18.953125 13.679688 18.957031 13.6875 C 18.976562 13.714844 19 13.742188 19.023438 13.769531 C 19.035156 13.785156 19.046875 13.800781 19.058594 13.816406 C 19.066406 13.824219 19.074219 13.832031 19.082031 13.839844 C 19.242188 14.027344 19.429688 14.191406 19.636719 14.328125 Z M 21.199219 14 C 20.941406 14 20.695312 13.953125 20.46875 13.867188 C 20.441406 13.839844 20.40625 13.816406 20.359375 13.800781 C 19.6875 13.5 19.257812 12.851562 19.207031 12.148438 C 19.207031 12.144531 19.207031 12.140625 19.203125 12.136719 C 19.203125 12.089844 19.199219 12.046875 19.199219 12 C 19.199219 11.953125 19.203125 11.910156 19.203125 11.863281 C 19.207031 11.859375 19.207031 11.855469 19.207031 11.851562 C 19.257812 11.148438 19.691406 10.5 20.441406 10.199219 C 20.484375 10.179688 20.523438 10.144531 20.5625 10.101562 C 20.761719 10.035156 20.976562 10 21.199219 10 C 22.320312 10 23.199219 10.878906 23.199219 12 C 23.199219 13.121094 22.320312 14 21.199219 14 Z M 21.199219 14"/>
    <path d="M 21.199219 10.800781 C 20.519531 10.800781 20 11.320312 20 12 C 20 12.238281 20.160156 12.398438 20.398438 12.398438 C 20.640625 12.398438 20.800781 12.238281 20.800781 12 C 20.800781 11.761719 20.960938 11.601562 21.199219 11.601562 C 21.441406 11.601562 21.601562 11.441406 21.601562 11.199219 C 21.601562 10.960938 21.441406 10.800781 21.199219 10.800781 Z M 21.199219 10.800781"/>
</svg>

<svg xmlns="http://www.w3.org/2000/svg" width="32" height="32" viewBox="0 0 24 24">
    <path d="M6.398 4.398c.243 0 .403-.16.403-.398 0-.238.16-.398.398-.398.242 0 .403-.16.403-.403 0-.238-.16-.398-.403-.398C6.52 2.8 6 3.32 6 4c0 .238.16.398.398.398zm0 0M16.398 4.398c.243 0 .403-.16.403-.398 0-.238.16-.398.398-.398.242 0 .403-.16.403-.403 0-.238-.16-.398-.403-.398C16.52 2.8 16 3.32 16 4c0 .238.16.398.398.398zm0 0M7.2 18.8c-.68 0-1.2.52-1.2 1.2 0 .238.16.398.398.398.243 0 .403-.16.403-.398 0-.238.16-.398.398-.398.242 0 .403-.16.403-.403 0-.238-.16-.398-.403-.398zm0 0M17.2 18.8c-.68 0-1.2.52-1.2 1.2 0 .238.16.398.398.398.243 0 .403-.16.403-.398 0-.238.16-.398.398-.398.242 0 .403-.16.403-.403 0-.238-.16-.398-.403-.398zm0 0M2.8 10.8c-.679 0-1.198.52-1.198 1.2 0 .238.16.398.398.398.238 0 .398-.16.398-.398 0-.238.16-.398.403-.398.238 0 .398-.16.398-.403 0-.238-.16-.398-.398-.398zm0 0M12 7.602A4.383 4.383 0 0 0 7.602 12 4.383 4.383 0 0 0 12 16.398 4.383 4.383 0 0 0 16.398 12 4.383 4.383 0 0 0 12 7.602zm0 8C10 15.602 8.398 14 8.398 12 8.398 10 10 8.398 12 8.398c2 0 3.602 1.602 3.602 3.602 0 2-1.602 3.602-3.602 3.602zm0 0"/>
    <path d="M12 9.2A2.786 2.786 0 0 0 9.2 12c0 .238.16.398.402.398.238 0 .398-.16.398-.398 0-1.121.879-2 2-2 .238 0 .398-.16.398-.398 0-.243-.16-.403-.398-.403zm0 0"/>
    <path d="M21.2 9.2c-.274 0-.536.038-.786.109l-1.664-2.97A2.783 2.783 0 0 0 20 4c0-1.559-1.238-2.8-2.8-2.8a2.781 2.781 0 0 0-2.77 2.402H9.973a2.782 2.782 0 0 0-2.774-2.403A2.786 2.786 0 0 0 4.4 4c0 .969.48 1.813 1.214 2.313l-2.3 2.933A2.77 2.77 0 0 0 2.8 9.2 2.783 2.783 0 0 0 0 12a2.783 2.783 0 0 0 3.277 2.758l2.309 2.945A2.79 2.79 0 0 0 4.398 20c0 1.559 1.243 2.8 2.801 2.8a2.782 2.782 0 0 0 2.774-2.402h4.457a2.781 2.781 0 0 0 2.77 2.403c1.562 0 2.8-1.242 2.8-2.801 0-1-.508-1.863-1.281-2.36l1.629-2.968c.27.082.554.129.851.129C22.762 14.8 24 13.559 24 12c0-1.559-1.238-2.8-2.8-2.8zm-4-7.2c1.12 0 2 .879 2 2a1.98 1.98 0 1 1-3.962 0 .48.48 0 0 0-.031-.172A1.98 1.98 0 0 1 17.199 2zm-12 2c0-1.121.878-2 2-2 1.12 0 2 .879 2 2a1.979 1.979 0 0 1-1.977 2c-.274-.004-.547-.082-.825-.2a.335.335 0 0 0-.16-.038A1.98 1.98 0 0 1 5.2 4zM.8 12c0-1.121.88-2 2-2 .184 0 .364.023.532.07.012.004.02.008.027.008.79.227 1.364.945 1.434 1.758v.004a.425.425 0 0 1 .004.07c.004.031.004.059.004.09s0 .059-.004.09c0 .023 0 .047-.004.074a2.016 2.016 0 0 1-1.473 1.758.218.218 0 0 0-.062.027c-.149.031-.301.051-.457.051-1.121 0-2-.879-2-2zm6.4 10c-1.122 0-2-.879-2-2 0-.773.417-1.43 1.046-1.766a.295.295 0 0 0 .113-.035c.282-.12.563-.199.84-.199 1.121 0 2 .879 2 2s-.879 2-2 2zm12-2c0 1.121-.88 2-2 2-1.122 0-2-.879-2-2s.878-2 2-2c1.12 0 2 .879 2 2zm-1.231-2.695a2.928 2.928 0 0 0-.77-.106h-.039c-1.398 0-2.558 1.04-2.762 2.403H9.973A2.783 2.783 0 0 0 7.46 17.21h-.027a.822.822 0 0 0-.098-.008c-.047 0-.09-.004-.137-.004-.32 0-.597.04-.879.121l-2.23-2.828a2.777 2.777 0 0 0 1.5-2.281c.004-.008.004-.02.004-.031 0-.02.004-.04.004-.059 0-.039.004-.082.004-.121 0-.04-.004-.082-.004-.121 0-.02-.004-.04-.004-.059 0-.011 0-.023-.004-.03a2.777 2.777 0 0 0-1.5-2.282L6.32 6.68c.23.066.485.105.723.117h.02c.046 0 .093.004.136.004.047 0 .09-.004.137-.004a.822.822 0 0 0 .098-.008h.027A2.783 2.783 0 0 0 9.973 4.4h4.457a2.78 2.78 0 0 0 2.508 2.39h.027c.035.004.066.008.101.008.043 0 .09.004.133.004.043 0 .086-.004.13-.004.015 0 .026 0 .038-.004.031 0 .067-.004.098-.004.012-.004.023-.004.035-.004.04-.004.078-.012.117-.015l.082-.012c.004-.004.012-.004.02-.004.097-.02.191-.043.285-.07l1.633 2.988c-.207.137-.395.3-.555.488l-.023.024-.036.046a1.223 1.223 0 0 0-.066.082l-.012.02c-.023.027-.043.059-.066.09 0 .004-.004.008-.008.012l-.062.097a.082.082 0 0 1-.016.024c-.016.03-.035.062-.05.093l-.016.028c-.012.023-.028.05-.04.078l-.023.047a.769.769 0 0 0-.027.062 1.942 1.942 0 0 1-.051.121c-.027.075-.05.149-.074.223-.004.008-.004.016-.008.023-.012.043-.024.086-.031.133-.004.008-.004.02-.008.032a.454.454 0 0 1-.016.07.342.342 0 0 0-.008.062c-.007.028-.011.055-.015.078 0 .028-.004.051-.008.079 0 .011-.004.027-.004.043a1.032 1.032 0 0 0-.008.113c-.004.012-.004.023-.004.031 0 .043-.004.086-.004.129 0 .043.004.086.004.129 0 .008 0 .02.004.031 0 .04.004.078.008.113 0 .016.004.032.004.047.004.024.008.047.008.075.004.023.008.05.015.078 0 .02.004.043.008.062a.454.454 0 0 1 .016.07c.004.012.004.024.008.032.007.047.02.09.03.133.005.007.005.015.009.023.023.074.047.148.074.223a.139.139 0 0 0 .016.035l.035.086a.769.769 0 0 0 .05.11c.012.026.028.05.04.077l.015.028.051.093a.082.082 0 0 1 .016.024l.062.097c.004.004.008.008.008.012.023.031.043.063.066.09l.012.02c.02.027.043.054.066.082l.036.046.023.024c.16.187.348.351.555.488zM21.199 14c-.258 0-.504-.047-.73-.133a.274.274 0 0 0-.11-.066 1.968 1.968 0 0 1-1.152-1.653c0-.003 0-.007-.004-.011 0-.047-.004-.09-.004-.137 0-.047.004-.09.004-.137.004-.004.004-.008.004-.011.05-.704.484-1.352 1.234-1.653a.392.392 0 0 0 .122-.097c.199-.067.414-.102.636-.102 1.121 0 2 .879 2 2s-.879 2-2 2zm0 0"/>
    <path d="M21.2 10.8c-.68 0-1.2.52-1.2 1.2 0 .238.16.398.398.398.243 0 .403-.16.403-.398 0-.238.16-.398.398-.398.242 0 .403-.16.403-.403 0-.238-.16-.398-.403-.398zm0 0"/>
</svg>
